packages/core/src/svgs/tokens/branded/KINT.svg

<svg width="24" height="24" viewBox="0 0 24 24" fill="none" xmlns="http://www.w3.org/2000/svg">
<path d="M11.9996 7.625C13.1566 7.625 14.2662 8.08461 15.0843 8.90272C15.9024 9.72079 16.3621 10.8304 16.3621 11.9874C16.3621 13.1444 15.9024 14.2541 15.0843 15.0722C14.2662 15.8903 13.1566 16.3498 11.9996 16.3498C10.8427 16.3498 9.73307 15.8903 8.91493 15.0722C8.09681 14.2541 7.63721 13.1444 7.63721 11.9874C7.63721 10.8304 8.09681 9.72079 8.91493 8.90272C9.73307 8.08461 10.8427 7.625 11.9996 7.625Z" fill="url(#paint0_linear_364_5034)"/>
<path d="M9.70619 9.2813L9.57495 9.63129C10.3499 9.63129 10.2498 9.73746 10.6873 9.2813C11.1562 8.78128 11.0561 9.01878 11.8248 8.99378C12.9998 8.97503 12.2999 8.22504 13.9373 8.22504C12.6998 8.55004 12.9936 8.88127 12.1687 9.31878C11.4772 9.70596 10.7091 9.93637 9.91867 9.99383L10.3624 10.4312C12.2436 10.4875 11.9874 11.0876 13.1936 10.9C13.881 10.8 14.8811 10.8563 15.5623 11.0062L16.1622 11.3124L14.1623 11.2125C14.6185 11.9125 14.1374 11.1874 14.0998 13.35C14.2873 13.4938 14.3936 13.5813 14.6185 13.7249C14.9186 13.9374 14.9373 13.9062 15.0561 14.1937C15.206 14.4624 15.1623 14.6374 15.2498 14.9187C15.8206 14.2935 16.197 13.5156 16.3327 12.6802C16.4686 11.8446 16.3581 10.9875 16.0147 10.2139C15.6712 9.44011 15.1098 8.78325 14.399 8.32349C13.6882 7.86373 12.8589 7.62102 12.0124 7.62505H11.7999C11.6186 7.8063 11.3624 7.9063 10.8562 8.43754C10.4311 8.89377 10.0187 9.03753 9.70619 9.2813ZM14.8935 15.2749C14.5249 14.8999 14.0185 15.0937 12.5811 14.7811C12.1436 14.6811 11.6873 14.4812 11.4562 14.45C10.8311 14.3687 11.1999 14.6187 10.3748 14.3874C10.6061 14.9249 10.6999 14.5375 10.7311 15.3187C10.4625 15.2186 10.4437 15.1749 10.2312 15.0187L9.02493 13.9937C8.81868 13.7249 8.79368 13.5936 8.48119 13.4249C8.2062 13.2687 8.06869 13.2811 7.7937 13.125C7.98494 13.8429 8.3564 14.5001 8.87288 15.0345C9.3893 15.5686 10.0337 15.9619 10.7448 16.1773C11.456 16.3927 12.2104 16.4228 12.9363 16.2648C13.6624 16.1069 14.3362 15.7662 14.8935 15.2749Z" fill="#051332"/>
<path d="M11.712 12.1811C11.4995 12.6124 11.187 12.6999 10.5871 12.7437C9.6746 12.8124 9.83078 12.9436 9.20576 13.0811L9.19336 13.3248C9.5871 13.3999 9.94949 13.6248 10.1745 13.9936C11.4246 14.4061 10.5995 14.106 11.1558 14.0811C11.4057 14.0685 11.9245 14.3624 12.2807 14.4061L13.4994 14.6186C14.1869 14.7061 14.2683 14.4623 14.8056 14.8374L14.8244 14.1935C13.262 13.1435 14.437 11.8811 13.5245 11.8187C12.8245 11.7749 12.212 12.1436 11.712 12.1749V12.1811Z" fill="#051332"/>
<path d="M7.75613 13.0125C9.50604 13.1 8.23737 13.1375 9.43108 12.7124C9.79362 12.5811 10.0624 12.6874 10.4748 12.6374C10.8748 12.575 10.9874 12.3686 11.2748 12.1874C11.9436 11.5311 12.6811 11.9749 13.2373 11.6749C12.8248 11.4124 12.7123 11.6312 12.2561 11.425C11.9248 11.2625 11.9685 11.1562 11.5685 10.9999C10.8311 10.7062 10.2311 11.1562 9.89366 10.4374C9.43108 10.2187 9.10603 10.15 8.6936 10.4187C8.25611 10.6999 8.32487 10.7313 7.75613 10.9312C7.58389 11.6143 7.58389 12.3294 7.75613 13.0125ZM7.82488 10.7313C8.34987 10.6061 8.11237 10.5749 8.51237 10.2312C9.18113 9.64993 9.03735 10.2875 8.77486 9.50628C9.3624 9.80626 9.21234 10.0437 9.59354 9.29381L9.69358 8.29376C8.79345 8.85025 8.12858 9.71745 7.82488 10.7313Z" fill="#051332"/>
<path fill-rule="evenodd" clip-rule="evenodd" d="M21.3623 2.68769C21.0811 1.73147 16.675 1.78146 11.5001 2.78145C6.33764 3.78142 2.36271 5.36264 2.63772 6.31261C2.91895 7.26885 7.32511 7.21884 12.5 6.21887C17.6749 5.21888 21.6373 3.63767 21.3623 2.68769ZM13.1125 5.59388C17.1562 4.7189 20.7498 3.38768 20.7498 2.96894C20.7498 2.14395 16.5499 2.34396 12.2625 3.10019C7.80635 3.88767 3.2627 5.39388 3.2627 6.10638C3.2627 6.87511 8.45635 6.60011 13.1188 5.59388H13.1125ZM21.3623 17.6874C21.0811 16.7311 16.675 16.7811 11.5001 17.7811C6.33764 18.7812 2.36271 20.3624 2.63772 21.3123C2.91895 22.2685 7.32511 22.2185 12.5 21.2186C17.6749 20.2186 21.6373 18.6374 21.3623 17.6874ZM13.1125 20.5935C17.1562 19.7186 20.7498 18.3874 20.7498 17.9686C20.7498 17.1436 16.5499 17.3436 12.2625 18.0998C7.80635 18.8873 3.2627 20.3936 3.2627 21.1061C3.2627 21.8748 8.45635 21.5998 13.1188 20.5935H13.1125Z" fill="#181B1E"/>
<defs>
<linearGradient id="paint0_linear_364_5034" x1="11.9996" y1="1.99992" x2="11.9996" y2="22" gradientUnits="userSpaceOnUse">
<stop stop-color="#733D14"/>
<stop offset="0.28" stop-color="#D77925"/>
<stop offset="0.58" stop-color="#A74121"/>
<stop offset="0.75" stop-color="#D47825"/>
<stop offset="1" stop-color="#8B4C18"/>
</linearGradient>
</defs>
</svg>

<svg xmlns="http://www.w3.org/2000/svg" width="24" height="24" fill="none" viewBox="0 0 24 24">
    <path fill="url(#KINT__a)" d="M12 7.625a4.362 4.362 0 1 1 0 8.725 4.362 4.362 0 0 1 0-8.725"/>
    <path fill="#051332" d="m9.706 9.281-.131.35c.775 0 .675.106 1.112-.35.47-.5.37-.262 1.138-.287 1.175-.019.475-.769 2.112-.769-1.237.325-.943.656-1.768 1.094a5.4 5.4 0 0 1-2.25.675l.443.437c1.882.057 1.625.657 2.832.469.687-.1 1.687-.044 2.368.106l.6.306-2-.1c.456.7-.025-.025-.062 2.138.187.144.294.231.518.375.3.212.32.181.438.469.15.268.106.443.194.725a4.356 4.356 0 0 0-3.238-7.294H11.8c-.181.181-.438.281-.944.813-.425.456-.837.6-1.15.843m5.188 5.994c-.37-.375-.876-.181-2.313-.494-.437-.1-.894-.3-1.125-.331-.625-.081-.256.169-1.081-.063.231.538.325.15.356.932-.268-.1-.287-.144-.5-.3l-1.206-1.025c-.206-.27-.231-.4-.544-.57-.275-.155-.412-.143-.687-.299a4.364 4.364 0 0 0 7.1 2.15"/>
    <path fill="#051332" d="M11.712 12.181c-.213.431-.525.519-1.125.563-.912.068-.756.2-1.381.337l-.013.244c.394.075.756.3.982.669 1.25.412.425.112.98.087.25-.012.77.281 1.126.325l1.218.213c.688.087.77-.157 1.307.218l.018-.643c-1.562-1.05-.387-2.313-1.3-2.375-.7-.044-1.312.325-1.812.356z"/>
    <path fill="#051332" d="M7.756 13.013c1.75.087.481.124 1.675-.3.363-.132.631-.026 1.044-.076.4-.062.512-.268.8-.45.669-.656 1.406-.212 1.962-.512-.412-.263-.525-.044-.98-.25-.332-.163-.288-.269-.688-.425-.738-.294-1.338.156-1.675-.563-.463-.218-.788-.287-1.2-.018-.438.28-.37.312-.938.512a4.26 4.26 0 0 0 0 2.082m.069-2.282c.525-.125.287-.156.687-.5.67-.581.525.056.263-.725.587.3.437.538.819-.212l.1-1a4.33 4.33 0 0 0-1.87 2.437"/>
    <path fill="#181B1E" fill-rule="evenodd" d="M21.362 2.688c-.28-.957-4.687-.907-9.862.093-5.162 1-9.137 2.582-8.862 3.532.281.956 4.687.906 9.862-.094s9.137-2.581 8.862-3.531m-8.25 2.906c4.044-.875 7.638-2.206 7.638-2.625 0-.825-4.2-.625-8.487.131-4.457.788-9 2.294-9 3.006 0 .77 5.193.494 9.856-.512zm8.25 12.093c-.28-.956-4.687-.906-9.862.094-5.162 1-9.137 2.581-8.862 3.531.281.956 4.687.906 9.862-.093 5.175-1 9.137-2.582 8.862-3.532m-8.25 2.906c4.044-.874 7.638-2.206 7.638-2.624 0-.825-4.2-.625-8.487.13-4.457.788-9 2.295-9 3.007 0 .769 5.193.494 9.856-.513z" clip-rule="evenodd"/>
    <defs>
        <linearGradient id="KINT__a" x1="12" x2="12" y1="2" y2="22" gradientUnits="userSpaceOnUse">
            <stop stop-color="#733D14"/>
            <stop offset=".28" stop-color="#D77925"/>
            <stop offset=".58" stop-color="#A74121"/>
            <stop offset=".75" stop-color="#D47825"/>
            <stop offset="1" stop-color="#8B4C18"/>
        </linearGradient>
    </defs>
</svg>
